trunk/public/assets/images/icons/yellow/move_down/consultation.svg

<svg width="16" height="16" xmlns="http://www.w3.org/2000/svg" viewBox="0 0 16 16" shape-rendering="geometricPrecision" fill="#ffad00"><defs><mask id="a"><rect fill="#fff" width="100%" height="100%"/><path fill="#000" d="M14.934-.397l-2.04 2.036L10.86-.398l-2.472 2.47 4.51 4.51 4.508-4.51z"/></mask></defs><path fill="#cb1800" d="M12.895 3.052l-2.037-2.035L9.8 2.073l3.097 3.096 3.093-3.097-1.057-1.056"/><g mask="url(#a)"><path d="M1.06 3.2v2.776c0 .59.48 1.07 1.07 1.07h2.767c.052.07.866 1.123 2.333 1.35-.516-.46-.63-.965-.618-1.35h.5c.587 0 1.068-.48 1.068-1.07V3.2c0-.59-.48-1.07-1.07-1.07H2.13c-.59 0-1.07.48-1.07 1.07zm1.273 1.425h4.51v.63h-4.51v-.63zm0-1.303h4.51v.63h-4.51v-.63zM13.15 6.007c0-1.177-.954-2.13-2.13-2.13-1.18 0-2.13.953-2.13 2.13 0 1.178.95 2.13 2.13 2.13 1.176 0 2.13-.952 2.13-2.13zM6.987 11.2v2.67h8.067V11.2c0-1.128-.918-2.052-2.047-2.052H9.04c-1.127 0-2.053.924-2.053 2.053z"/></g></svg>

<?xml version="1.0"?><!DOCTYPE svg PUBLIC "-//W3C//DTD SVG 1.1//EN" "http://www.w3.org/Graphics/SVG/1.1/DTD/svg11.dtd"><svg width="16px" height="16px" xmlns="http://www.w3.org/2000/svg" viewBox="0 0 16 16" shape-rendering="geometricPrecision" fill="#ffad00"><defs><mask id="move_down-path"><rect fill="#fff" width="100%" height="100%"/><polygon points="14.934,-0.397 12.895,1.639 10.858,-0.397 8.386,2.073 12.897,6.583 17.404,2.073 " fill="#000"/></mask></defs><polygon points="12.895,3.052 10.858,1.017 9.8,2.073 12.897,5.169 15.99,2.073 14.933,1.017 " fill="#cb1800"/><g mask="url(#move_down-path)"><path d="M1.059,3.199v2.777c0,0.59,0.481,1.07,1.07,1.07h2.768c0.052,0.069,0.866,1.123,2.333,1.35 C6.714,7.935,6.6,7.431,6.612,7.047h0.499c0.588,0,1.069-0.48,1.069-1.07V3.199c0-0.588-0.481-1.07-1.069-1.07H2.129 C1.54,2.129,1.059,2.611,1.059,3.199z M2.333,4.625h4.509v0.629H2.333V4.625z M2.333,3.322h4.509v0.63H2.333V3.322z"/><g><path d="M13.15,6.007c0-1.177-0.954-2.13-2.129-2.13c-1.18,0-2.131,0.953-2.131,2.13c0,1.178,0.951,2.13,2.131,2.13 C12.196,8.137,13.15,7.185,13.15,6.007z M6.987,11.201v2.669h8.067v-2.669c0-1.129-0.918-2.053-2.047-2.053H9.041 C7.913,9.148,6.987,10.072,6.987,11.201z"/></g></g></svg>
